X:1     %Music
T:Scarborough Fair
B:Singing Together, Summer 1975, BBC Publications
F:http://www.folkinfo.org/songs
M:9/8     %Meter
L:1/8     %
K:C
D2 D AGA E3/2F/E |C6 z3 |A2 c d2 c ABA |A6 z2 
w:Are you go-ing to Scar-bo-rough Fair? Pars-ley, sage, rose-ma-ry and thyme; 
d |d2 D F2 G A3/2G/F |(E/D/C3-)C2z2 D |D2 A G2 F EDC |D6 z3 |]
w:Re-mem-ber me to one who lives there___ For once she was a true love of mine 